svgs/regular/car-building.svg

<svg xmlns="http://www.w3.org/2000/svg" viewBox="0 0 640 512"><!--! Font Awesome Pro 6.4.2 by @fontawesome - https://fontawesome.com License - https://fontawesome.com/license (Commercial License) Copyright 2023 Fonticons, Inc. --><path d="M288 48H64c-8.8 0-16 7.2-16 16V416c0 8.8 7.2 16 16 16H192v48H64c-35.3 0-64-28.7-64-64V64C0 28.7 28.7 0 64 0H288c35.3 0 64 28.7 64 64v64.5c-17.5 1.7-33.9 7.7-48 17.1V64c0-8.8-7.2-16-16-16zM256 219.1l-13.1 36.6c-.9 .2-1.9 .3-2.9 .3H208c-8.8 0-16-7.2-16-16V208c0-8.8 7.2-16 16-16h32c8.8 0 16 7.2 16 16v11.1zM96 112c0-8.8 7.2-16 16-16h32c8.8 0 16 7.2 16 16v32c0 8.8-7.2 16-16 16H112c-8.8 0-16-7.2-16-16V112zM208 96h32c8.8 0 16 7.2 16 16v32c0 8.8-7.2 16-16 16H208c-8.8 0-16-7.2-16-16V112c0-8.8 7.2-16 16-16zM96 208c0-8.8 7.2-16 16-16h32c8.8 0 16 7.2 16 16v32c0 8.8-7.2 16-16 16H112c-8.8 0-16-7.2-16-16V208zm0 96c0-8.8 7.2-16 16-16h32c8.8 0 16 7.2 16 16v32c0 8.8-7.2 16-16 16H112c-8.8 0-16-7.2-16-16V304zm265.8-96c-10.1 0-19.2 6.4-22.6 15.9L322.1 272H541.9l-17.2-48.1c-3.4-9.6-12.5-15.9-22.6-15.9H361.8zm-96.4 79.9L294 207.8c10.2-28.7 37.4-47.8 67.8-47.8H502.2c30.4 0 57.6 19.1 67.8 47.8l28.6 80.1c.2 .5 .3 .9 .5 1.4C623.8 306.7 640 335.5 640 368v32 16 32 40c0 13.3-10.7 24-24 24s-24-10.7-24-24V448H272v40c0 13.3-10.7 24-24 24s-24-10.7-24-24V448 416 400 368c0-32.5 16.2-61.3 40.9-78.7c.1-.5 .3-.9 .5-1.4zM544 320H320c-26.5 0-48 21.5-48 48v32H592V368c0-26.5-21.5-48-48-48zM336 336a24 24 0 1 1 0 48 24 24 0 1 1 0-48zm168 24a24 24 0 1 1 48 0 24 24 0 1 1 -48 0z"/></svg>

<svg xmlns="http://www.w3.org/2000/svg" viewBox="0 0 640 512"><!--! Font Awesome Pro 6.1.1 by @fontawesome - https://fontawesome.com License - https://fontawesome.com/license (Commercial License) Copyright 2022 Fonticons, Inc. --><path d="M288 48H64C55.16 48 48 55.16 48 64V416C48 424.8 55.16 432 64 432H192V480H64C28.65 480 0 451.3 0 416V64C0 28.65 28.65 0 64 0H288C323.3 0 352 28.65 352 64V128.5C334.5 130.1 318.1 136.1 304 145.6V63.1C304 55.16 296.8 47.1 288 47.1V48zM242.9 255.7C241.1 255.9 240.1 256 240 256H208C199.2 256 192 248.8 192 240V208C192 199.2 199.2 192 208 192H240C248.8 192 256 199.2 256 208V219.1L242.9 255.7zM96 112C96 103.2 103.2 96 112 96H144C152.8 96 160 103.2 160 112V144C160 152.8 152.8 160 144 160H112C103.2 160 96 152.8 96 144V112zM240 96C248.8 96 256 103.2 256 112V144C256 152.8 248.8 160 240 160H208C199.2 160 192 152.8 192 144V112C192 103.2 199.2 96 208 96H240zM96 208C96 199.2 103.2 192 112 192H144C152.8 192 160 199.2 160 208V240C160 248.8 152.8 256 144 256H112C103.2 256 96 248.8 96 240V208zM96 304C96 295.2 103.2 288 112 288H144C152.8 288 160 295.2 160 304V336C160 344.8 152.8 352 144 352H112C103.2 352 96 344.8 96 336V304zM312 360C312 346.7 322.7 336 336 336C349.3 336 360 346.7 360 360C360 373.3 349.3 384 336 384C322.7 384 312 373.3 312 360zM552 360C552 373.3 541.3 384 528 384C514.7 384 504 373.3 504 360C504 346.7 514.7 336 528 336C541.3 336 552 346.7 552 360zM294 207.8C304.3 179.1 331.4 160 361.8 160H502.2C532.6 160 559.7 179.1 569.1 207.8L598.6 287.9C598.8 288.4 598.9 288.9 599.1 289.3C623.8 306.7 640 335.5 640 368V488C640 501.3 629.3 512 616 512C602.7 512 592 501.3 592 488V448H272V488C272 501.3 261.3 512 248 512C234.7 512 224 501.3 224 488V368C224 335.5 240.2 306.7 264.9 289.3C265.1 288.9 265.2 288.4 265.4 287.9L294 207.8zM361.8 208C351.7 208 342.6 214.4 339.2 223.9L322.1 272H541.9L524.8 223.9C521.4 214.4 512.3 208 502.2 208H361.8zM544 320H320C293.5 320 272 341.5 272 368V400H592V368C592 341.5 570.5 320 544 320z"/></svg>
